X: 1
T: Sir Festus Burke
R: hornpipe
M: 4/4
L: 1/8
K: Dmaj
d2A2 d2e2|g2fe d2f2|g2fe a2fd|c2B2 A4|
BAG2 G2B2|G2B2 cde2|d2cB A2Bc|d4d4||
a2f2 d2a2|agfe d2a2|b2g2 e2b2|bagf e4|
agfe fgaf|edcB cdec|dBGB GBdB|ecAc Acec|
dcBA GFED|CB,CD EFGE|F2D2 D2F2|A4A4|B2G2 G2B2|
e4e4|dcBA A2a2|gab2 fga2|g2B2 cdec|d4d4||
FAdA FAFD|AFDF DFAF|B2G2 dcdB|c2A2 edec|
d2a2 c2g2|gfef g2e2|d2fd A2d2|BGBd D2GB|
A,EA,C A2Aa|B,G,B,D G2GB|gfef gfed|a2ef gfed|b2ef gfed|
c2A2 A2A2|Bcdc BAGF|AGFE GFED|A2A,2 CDEC|D4D4||

